openmetadata-ui/src/main/resources/ui/src/assets/svg/ic-manage.svg

<svg width="16" height="16" viewBox="0 0 16 16" fill="none" xmlns="http://www.w3.org/2000/svg">
<path d="M12.7676 7.68014C12.4738 7.60195 12.2622 7.41008 12.1558 7.12527C12.1099 7.00214 12.0588 6.87896 12.004 6.75918C11.8775 6.48237 11.8913 6.19681 12.044 5.93346C12.3728 5.36625 12.2792 4.64676 11.8163 4.18385C11.3533 3.72089 10.6339 3.62726 10.0666 3.95617C9.8033 4.10885 9.5178 4.12267 9.24096 3.99614C9.12134 3.94145 8.99815 3.89039 8.8749 3.84436C8.59006 3.73801 8.39818 3.52645 8.31997 3.23255C8.15141 2.59899 7.57647 2.15649 6.92182 2.15649C6.26717 2.15649 5.69221 2.59899 5.52368 3.23255C5.44549 3.52642 5.25358 3.73795 4.96877 3.84432C4.84562 3.89032 4.72243 3.94136 4.60268 3.9961C4.3259 4.12267 4.04037 4.10885 3.777 3.95614C3.20979 3.62723 2.49029 3.72089 2.02736 4.18385C1.46336 4.74782 1.46336 5.6655 2.02736 6.22946L2.0838 6.2859C1.83836 6.70943 1.65158 7.15989 1.52568 7.63179H1.44649C0.648901 7.63179 0 8.28066 0 9.07828C0 9.73293 0.442496 10.3079 1.07602 10.4764C1.36986 10.5546 1.58143 10.7465 1.6878 11.0313C1.7338 11.1545 1.78486 11.2776 1.83961 11.3974C1.96617 11.6742 1.95236 11.9598 1.79967 12.2231C1.4708 12.7903 1.56443 13.5098 2.02739 13.9727C2.49032 14.4356 3.20985 14.5293 3.77703 14.2004C4.04041 14.0477 4.3259 14.0339 4.60275 14.1604C4.72246 14.2151 4.84562 14.2662 4.96881 14.3122C5.25365 14.4186 5.44552 14.6301 5.52371 14.924C5.69227 15.5575 6.2672 16.0001 6.92185 16.0001C7.5765 16.0001 8.15147 15.5576 8.32 14.924C8.39818 14.6301 8.59009 14.4186 8.87496 14.3122C8.9984 14.2661 9.12159 14.215 9.24096 14.1604C9.51777 14.0339 9.8033 14.0477 10.0666 14.2004C10.6339 14.5292 11.3533 14.4356 11.8163 13.9727C12.2792 13.5098 12.3729 12.7903 12.044 12.2231C11.8913 11.9597 11.8775 11.6742 12.004 11.3974C12.0588 11.2776 12.1099 11.1545 12.1558 11.0313C12.2622 10.7465 12.4737 10.5546 12.7676 10.4764C13.4011 10.3078 13.8436 9.7329 13.8436 9.07832C13.8436 8.42363 13.4011 7.8487 12.7676 7.68014ZM12.5266 9.57047C11.9353 9.72784 11.4917 10.1302 11.2776 10.7033C11.2394 10.8057 11.1969 10.9081 11.1514 11.0076C10.8968 11.5647 10.9257 12.1634 11.233 12.6933C11.349 12.8934 11.3163 13.147 11.1534 13.3098C10.9906 13.4727 10.737 13.5054 10.5369 13.3894C10.007 13.0821 9.40833 13.0532 8.85118 13.3079C8.75193 13.3532 8.64956 13.3957 8.54696 13.434C7.97372 13.6481 7.57138 14.0917 7.41404 14.6831C7.35457 14.9066 7.15219 15.0626 6.92185 15.0626C6.69154 15.0626 6.48914 14.9066 6.42967 14.683C6.27229 14.0917 5.86995 13.6481 5.29674 13.434C5.19437 13.3958 5.09199 13.3533 4.99249 13.3079C4.74131 13.193 4.48171 13.1359 4.22375 13.1359C3.90953 13.1359 3.59778 13.2207 3.30676 13.3894C3.10663 13.5054 2.85313 13.4727 2.69023 13.3098C2.52736 13.147 2.49464 12.8935 2.61067 12.6934C2.91795 12.1634 2.94688 11.5647 2.69223 11.0077C2.6467 10.9081 2.60426 10.8057 2.56601 10.7034C2.35195 10.1302 1.90842 9.72784 1.31705 9.57047C1.09359 9.511 0.937493 9.30859 0.937493 9.07828C0.937493 8.79763 1.16583 8.56929 1.44649 8.56929H1.89864C2.12317 8.56929 2.31617 8.41007 2.35886 8.1896C2.47767 7.57576 2.71607 7.0008 3.06748 6.48062C3.19313 6.29459 3.16926 6.04556 3.01051 5.88678L2.69029 5.56656C2.49182 5.36809 2.49182 5.04519 2.69029 4.84672C2.85317 4.68388 3.10666 4.65113 3.30679 4.76716C3.83675 5.07444 4.43543 5.10344 4.99246 4.84872C5.09199 4.80322 5.19437 4.76079 5.29674 4.72257C5.86995 4.50851 6.27229 4.06495 6.42964 3.47358C6.48911 3.25008 6.69148 3.09399 6.92182 3.09399C7.15213 3.09399 7.35454 3.25008 7.414 3.47358C7.57138 4.06495 7.97372 4.50854 8.54693 4.72257C8.6494 4.76082 8.75174 4.80329 8.85118 4.84872C9.40827 5.10338 10.0069 5.07441 10.5369 4.76716C10.7369 4.6511 10.9905 4.68385 11.1534 4.84675C11.3162 5.0096 11.3489 5.26313 11.2329 5.46322C10.9256 5.99318 10.8967 6.59187 11.1514 7.14896C11.1969 7.24855 11.2394 7.35092 11.2776 7.45327C11.4917 8.02645 11.9352 8.42876 12.5265 8.5861C12.75 8.64557 12.9061 8.84797 12.9061 9.07828C12.9061 9.30859 12.7501 9.511 12.5266 9.57047Z" fill="#76746F"/>
<path d="M15.6295 2.69046L15.4649 2.60624C15.494 2.46605 15.5055 2.32318 15.4993 2.18018L15.6752 2.1234C15.9216 2.04387 16.0568 1.77968 15.9773 1.53334C15.8977 1.28697 15.6335 1.15178 15.3872 1.23125L15.2113 1.28803C15.1327 1.16838 15.0398 1.05922 14.9343 0.962471L15.0186 0.797941C15.1365 0.567505 15.0453 0.28507 14.8149 0.167071C14.5845 0.0490715 14.302 0.140258 14.184 0.370725L14.0995 0.535786C13.9581 0.506818 13.8154 0.495849 13.6741 0.501974L13.6169 0.325007C13.5374 0.0786337 13.2732 -0.0566152 13.0269 0.0229154C12.7805 0.102446 12.6453 0.366632 12.7248 0.612973L12.7819 0.789909C12.6637 0.867534 12.5543 0.959939 12.4565 1.06613L12.2915 0.981627C12.061 0.86369 11.7786 0.954814 11.6606 1.18528C11.5426 1.41572 11.6338 1.69815 11.8642 1.81615L12.0288 1.90037C11.9997 2.04056 11.9882 2.1834 11.9944 2.32643L11.8185 2.38321C11.5722 2.46271 11.4369 2.72693 11.5164 2.97327C11.5805 3.1718 11.7645 3.29814 11.9624 3.29814C12.0101 3.29814 12.0586 3.2908 12.1065 3.27536L12.2824 3.21858C12.361 3.33823 12.4538 3.44739 12.5593 3.54414L12.4751 3.7087C12.3571 3.93913 12.4483 4.22157 12.6787 4.33954C12.7471 4.37457 12.82 4.39113 12.892 4.39113C13.0623 4.39113 13.2266 4.29794 13.3096 4.13588L13.3939 3.97117C13.5095 3.9951 13.6269 4.00788 13.7449 4.00788C13.7699 4.00788 13.7949 4.00723 13.8199 4.00613L13.8766 4.18163C13.9407 4.38016 14.1247 4.50651 14.3226 4.50651C14.3703 4.50651 14.4188 4.49916 14.4667 4.48372C14.713 4.40419 14.8482 4.14001 14.7688 3.89364L14.712 3.71776C14.8316 3.63917 14.9408 3.54629 15.0375 3.44079L15.2021 3.52504C15.2705 3.56008 15.3434 3.57664 15.4153 3.57664C15.5856 3.57664 15.75 3.48345 15.8329 3.32139C15.9511 3.09086 15.8599 2.80842 15.6295 2.69046ZM14.4734 2.62524C14.2683 3.02583 13.7756 3.18495 13.3749 2.9798C12.9744 2.77471 12.8153 2.28193 13.0204 1.88134C13.1647 1.59947 13.4514 1.43719 13.7483 1.43719C13.8733 1.43719 14.0001 1.466 14.1189 1.52678C14.5195 1.73184 14.6785 2.22462 14.4734 2.62524Z" fill="#76746F"/>
<path d="M6.92172 5.41553C4.90211 5.41553 3.25903 7.05861 3.25903 9.07822C3.25903 11.0978 4.90211 12.7409 6.92172 12.7409C8.94133 12.7409 10.5844 11.0978 10.5844 9.07822C10.5844 7.05861 8.94133 5.41553 6.92172 5.41553ZM6.92172 11.8034C6.46582 11.8034 6.03579 11.6907 5.6578 11.492C5.92701 11.0566 6.40176 10.7855 6.92172 10.7855C7.43856 10.7855 7.91678 11.0635 8.18487 11.4924C7.80703 11.6909 7.37728 11.8034 6.92172 11.8034ZM6.18457 9.07822C6.18457 8.67175 6.51526 8.3411 6.92172 8.3411C7.32819 8.3411 7.65884 8.67178 7.65884 9.07822C7.65884 9.48465 7.32816 9.81537 6.92172 9.81537C6.51529 9.81537 6.18457 9.48468 6.18457 9.07822ZM8.92933 10.919C8.77746 10.6947 8.58877 10.4947 8.37121 10.3316C8.30543 10.2823 8.23752 10.2371 8.16812 10.1951C8.43415 9.89856 8.59633 9.507 8.59633 9.07819C8.59633 8.15479 7.84509 7.40357 6.92172 7.40357C5.99836 7.40357 5.24708 8.15482 5.24708 9.07819C5.24708 9.50653 5.40892 9.89765 5.67442 10.1941C5.37386 10.3749 5.11305 10.6207 4.9129 10.9177C4.46831 10.4326 4.19656 9.78653 4.19656 9.07816C4.19656 7.57548 5.41908 6.35296 6.92175 6.35296C8.42443 6.35296 9.64695 7.57548 9.64695 9.07816C9.64692 9.78721 9.37467 10.4337 8.92933 10.919Z" fill="#76746F"/>
</svg>

<svg xmlns="http://www.w3.org/2000/svg" width="16" height="16" fill="none"><path fill="#76746F" d="M12.768 7.68a.867.867 0 0 1-.612-.555 5.51 5.51 0 0 0-.152-.366.867.867 0 0 1 .04-.826 1.45 1.45 0 0 0-.228-1.75 1.45 1.45 0 0 0-1.75-.227.867.867 0 0 1-.825.04 5.576 5.576 0 0 0-.366-.152.867.867 0 0 1-.555-.611 1.45 1.45 0 0 0-1.398-1.077c-.655 0-1.23.443-1.398 1.077a.867.867 0 0 1-.555.611 5.586 5.586 0 0 0-.366.152.867.867 0 0 1-.826-.04 1.449 1.449 0 0 0-1.75.228 1.448 1.448 0 0 0 0 2.045l.057.057a5.512 5.512 0 0 0-.558 1.346h-.08C.65 7.632 0 8.28 0 9.078c0 .655.442 1.23 1.076 1.398.294.079.505.27.612.555.046.123.097.247.152.366a.867.867 0 0 1-.04.826 1.449 1.449 0 0 0 .227 1.75 1.45 1.45 0 0 0 1.75.227.867.867 0 0 1 .826-.04c.12.055.243.106.366.152a.867.867 0 0 1 .555.612A1.45 1.45 0 0 0 6.922 16c.655 0 1.23-.442 1.398-1.076a.867.867 0 0 1 .555-.612c.123-.046.247-.097.366-.152a.867.867 0 0 1 .826.04 1.45 1.45 0 0 0 1.75-.227 1.449 1.449 0 0 0 .227-1.75.867.867 0 0 1-.04-.826 5.5 5.5 0 0 0 .152-.366.867.867 0 0 1 .612-.555 1.45 1.45 0 0 0 1.076-1.398 1.45 1.45 0 0 0-1.076-1.398Zm-.241 1.89a1.794 1.794 0 0 0-1.25 1.133c-.038.103-.08.205-.126.305a1.793 1.793 0 0 0 .082 1.685.51.51 0 0 1-.696.696 1.793 1.793 0 0 0-1.686-.081c-.1.045-.201.088-.304.126a1.793 1.793 0 0 0-1.133 1.25.51.51 0 0 1-.984-.001 1.794 1.794 0 0 0-1.133-1.249 4.667 4.667 0 0 1-.305-.126 1.841 1.841 0 0 0-.768-.172c-.314 0-.626.085-.917.253a.51.51 0 0 1-.696-.696c.307-.53.336-1.128.081-1.685a4.664 4.664 0 0 1-.126-.305A1.793 1.793 0 0 0 1.317 9.57a.51.51 0 0 1 .13-1.001h.452c.224 0 .417-.159.46-.38a4.597 4.597 0 0 1 .708-1.708.469.469 0 0 0-.056-.594l-.32-.32a.51.51 0 0 1 .616-.8c.53.307 1.128.336 1.685.082.1-.046.202-.088.305-.126a1.793 1.793 0 0 0 1.133-1.25.51.51 0 0 1 .984 0c.157.592.56 1.036 1.133 1.25.102.038.205.08.304.126a1.793 1.793 0 0 0 1.686-.082.51.51 0 0 1 .696.696 1.793 1.793 0 0 0-.082 1.686c.046.1.088.202.127.304.214.573.657.976 1.248 1.133a.51.51 0 0 1 0 .984ZM15.63 2.69l-.165-.084c.029-.14.04-.283.034-.426l.176-.057a.469.469 0 1 0-.288-.892l-.176.057a1.73 1.73 0 0 0-.277-.326l.085-.164a.469.469 0 0 0-.835-.427L14.1.536a1.742 1.742 0 0 0-.426-.034l-.057-.177a.469.469 0 1 0-.892.288l.057.177c-.118.078-.228.17-.325.276L12.29.982a.469.469 0 0 0-.427.834l.165.084c-.03.14-.04.283-.035.426l-.175.057a.469.469 0 0 0 .287.892l.176-.056c.079.12.172.228.277.325l-.084.165a.469.469 0 1 0 .835.427l.084-.165a1.73 1.73 0 0 0 .426.035l.057.176a.469.469 0 0 0 .892-.288l-.057-.176a1.73 1.73 0 0 0 .325-.277l.165.084a.466.466 0 0 0 .63-.204.469.469 0 0 0-.203-.63Zm-1.157-.065a.817.817 0 0 1-1.453-.744.817.817 0 0 1 1.453.744Z"/><path fill="#76746F" d="M6.922 5.416a3.667 3.667 0 0 0-3.663 3.662 3.667 3.667 0 0 0 3.663 3.663 3.667 3.667 0 0 0 3.662-3.663 3.667 3.667 0 0 0-3.662-3.662Zm0 6.387c-.456 0-.886-.112-1.264-.311.269-.435.744-.707 1.264-.707.517 0 .995.278 1.263.707a2.708 2.708 0 0 1-1.263.311Zm-.737-2.725a.738.738 0 1 1 1.475.002.738.738 0 0 1-1.475-.002Zm2.744 1.841a2.454 2.454 0 0 0-.76-.724 1.677 1.677 0 0 0-1.246-2.792c-.925 0-1.676.752-1.676 1.675 0 .429.162.82.427 1.116-.3.18-.561.427-.761.724a2.715 2.715 0 0 1-.716-1.84 2.728 2.728 0 0 1 2.725-2.725 2.728 2.728 0 0 1 2.725 2.725c0 .71-.272 1.356-.718 1.841Z"/></svg>
